apps/website/src/assets/openalternative.svg

<svg width="572" height="91" viewBox="0 0 572 91" fill="none" xmlns="http://www.w3.org/2000/svg">
<g clip-path="url(#clip0_1057_27)">
<path d="M91.4875 45.4077V41.054L56.0526 43.0943C54.8166 43.1618 53.7598 42.2136 53.6922 40.9806C53.6629 40.4316 53.8302 39.9207 54.1355 39.5127L73.5469 9.95818L66.002 5.60148L50.0489 37.3138C49.4911 38.4176 48.1436 38.8639 47.0398 38.3061C46.5876 38.0771 46.2471 37.7189 46.0387 37.2991L30.0944 5.60148L22.5495 9.95818L42.0372 39.6272C42.7154 40.6606 42.4276 42.0462 41.3972 42.7274C40.9803 43.0004 40.5076 43.1178 40.0438 43.0914V43.0973L4.60893 41.0569V49.7644L40.0438 47.724C41.2798 47.6565 42.3366 48.6018 42.4042 49.8378C42.4335 50.3839 42.2632 50.8976 41.9609 51.3057L22.5495 80.8602L26.3278 83.0415L26.3308 83.0385L30.1003 85.214L46.0504 53.5046C46.6082 52.4007 47.9557 51.9545 49.0596 52.5123C49.5117 52.7413 49.8522 53.0995 50.0607 53.5193L66.0049 85.214L69.7715 83.0385L69.8977 82.971L73.5498 80.8602L54.0651 51.1912C53.3869 50.1578 53.6746 48.7721 54.7051 48.094C55.122 47.8209 55.5946 47.7035 56.0555 47.7299V47.727L91.4904 49.7674V45.4136L91.4875 45.4077ZM95.9821 38.6789V52.1365H95.9763L95.9733 52.2598C95.9058 53.4958 94.8489 54.4411 93.613 54.3736L60.2449 52.4536L78.5847 80.3758L78.6581 80.4962C79.2717 81.5677 78.9047 82.9358 77.8331 83.5523L72.1289 86.8433L72.0144 86.9138L66.1869 90.2782L66.0724 90.3398C64.9686 90.8976 63.621 90.4543 63.0632 89.3475L48.0467 59.4965L33.0537 89.3035C33.0273 89.3563 33.0009 89.4092 32.9715 89.462C32.352 90.5336 30.9781 90.8976 29.9095 90.2782L24.082 86.9138L24.0849 86.9108L18.2632 83.5523L18.1487 83.4818C17.1154 82.8037 16.8306 81.4151 17.5087 80.3817L35.8515 52.4536L2.65077 54.3648C2.55682 54.3765 2.45994 54.3824 2.36306 54.3824C1.12122 54.3824 0.117188 53.3754 0.117188 52.1365V38.6789H0.123059L0.125995 38.5556C0.193518 37.3196 1.2504 36.3714 2.48636 36.4418L35.8544 38.3648L17.5146 10.4426L17.4412 10.3222C16.8276 9.25066 17.1946 7.88258 18.2662 7.269L29.8009 0.60772C29.8713 0.560747 29.9476 0.516711 30.0269 0.478546C31.1308 -0.0792525 32.4812 0.36405 33.039 1.47084L48.0555 31.3218L63.072 1.47084L63.075 1.47377L63.1337 1.36515C63.7473 0.293592 65.1154 -0.0763167 66.1869 0.540197L77.842 7.269L77.9565 7.33946C78.9898 8.01763 79.2746 9.40625 78.5965 10.4367L60.2537 38.3648L93.4544 36.4507C93.5484 36.4389 93.6453 36.433 93.7421 36.433C94.984 36.433 95.988 37.44 95.988 38.6789H95.9821Z" fill="black"/>
</g>
<path d="M145.938 68.75C141.812 68.75 138.135 67.7396 134.906 65.7188C131.677 63.6979 129.135 60.8854 127.281 57.2812C125.448 53.6562 124.531 49.4792 124.531 44.75C124.531 39.9792 125.448 35.7917 127.281 32.1875C129.135 28.5625 131.677 25.7396 134.906 23.7188C138.135 21.6979 141.812 20.6875 145.938 20.6875C150.083 20.6875 153.76 21.6979 156.969 23.7188C160.198 25.7396 162.74 28.5625 164.594 32.1875C166.448 35.7917 167.375 39.9792 167.375 44.75C167.375 49.4792 166.448 53.6562 164.594 57.2812C162.74 60.8854 160.198 63.6979 156.969 65.7188C153.76 67.7396 150.083 68.75 145.938 68.75ZM145.938 62.4062C148.625 62.4062 151.062 61.7292 153.25 60.375C155.438 59 157.177 57 158.469 54.375C159.76 51.7292 160.406 48.5208 160.406 44.75C160.406 40.9583 159.76 37.7396 158.469 35.0938C157.177 32.4479 155.438 30.4479 153.25 29.0938C151.062 27.7188 148.625 27.0312 145.938 27.0312C143.271 27.0312 140.844 27.7188 138.656 29.0938C136.469 30.4479 134.729 32.4479 133.438 35.0938C132.146 37.7396 131.5 40.9583 131.5 44.75C131.5 48.5208 132.146 51.7292 133.438 54.375C134.729 57 136.469 59 138.656 60.375C140.844 61.7292 143.271 62.4062 145.938 62.4062ZM172.696 81.0625V35H179.165V39.75H179.259C179.946 38.5417 180.811 37.5417 181.853 36.75C182.915 35.9583 184.092 35.3646 185.384 34.9688C186.696 34.5521 188.061 34.3438 189.478 34.3438C192.332 34.3438 194.821 35.0729 196.946 36.5312C199.092 37.9688 200.759 39.9792 201.946 42.5625C203.155 45.125 203.759 48.1042 203.759 51.5C203.759 54.8958 203.165 57.8854 201.978 60.4688C200.79 63.0312 199.123 65.0417 196.978 66.5C194.832 67.9375 192.321 68.6562 189.446 68.6562C188.03 68.6562 186.686 68.4479 185.415 68.0312C184.165 67.6146 183.03 66.9896 182.009 66.1562C180.988 65.3229 180.113 64.2812 179.384 63.0312H179.29V81.0625H172.696ZM188.103 62.9688C189.894 62.9688 191.457 62.5312 192.79 61.6562C194.123 60.7604 195.165 59.4688 195.915 57.7812C196.686 56.0729 197.071 53.9792 197.071 51.5C197.071 49 196.686 46.8958 195.915 45.1875C195.165 43.4792 194.123 42.1875 192.79 41.3125C191.457 40.4375 189.894 40 188.103 40C186.228 40 184.592 40.4792 183.196 41.4375C181.821 42.375 180.748 43.7083 179.978 45.4375C179.228 47.1458 178.853 49.1667 178.853 51.5C178.853 53.7917 179.228 55.8021 179.978 57.5312C180.748 59.2604 181.821 60.6042 183.196 61.5625C184.592 62.5 186.228 62.9688 188.103 62.9688ZM222.705 68.75C219.434 68.75 216.622 68.0104 214.268 66.5312C211.934 65.0521 210.132 63.0208 208.861 60.4375C207.611 57.8333 206.986 54.875 206.986 51.5625C206.986 48.1875 207.643 45.2083 208.955 42.625C210.268 40.0208 212.08 37.9792 214.393 36.5C216.705 35 219.361 34.25 222.361 34.25C224.695 34.25 226.799 34.6667 228.674 35.5C230.57 36.3333 232.195 37.5208 233.549 39.0625C234.903 40.5833 235.945 42.3958 236.674 44.5C237.403 46.6042 237.768 48.9375 237.768 51.5V53.2812H209.955V48.2812H234.299L231.393 49.8125C231.393 47.7708 231.028 46 230.299 44.5C229.57 42.9792 228.528 41.8125 227.174 41C225.84 40.1667 224.257 39.75 222.424 39.75C220.611 39.75 219.038 40.1667 217.705 41C216.372 41.8125 215.33 42.9792 214.58 44.5C213.851 46 213.486 47.7708 213.486 49.8125V52.6562C213.486 54.7396 213.851 56.5833 214.58 58.1875C215.309 59.7708 216.361 61.0104 217.736 61.9062C219.132 62.8021 220.82 63.25 222.799 63.25C224.236 63.25 225.507 63.0312 226.611 62.5938C227.715 62.1354 228.632 61.5104 229.361 60.7188C230.09 59.9271 230.611 59.0104 230.924 57.9688H237.268C236.872 60.0938 235.986 61.9688 234.611 63.5938C233.257 65.1979 231.549 66.4583 229.486 67.375C227.445 68.2917 225.184 68.75 222.705 68.75ZM249.12 49V68H242.526V35H248.995V43.1875H247.464C248.547 40.2292 250.047 38.0208 251.964 36.5625C253.901 35.0833 256.235 34.3438 258.964 34.3438C261.235 34.3438 263.266 34.8438 265.058 35.8438C266.87 36.8229 268.297 38.2812 269.339 40.2188C270.38 42.1562 270.901 44.5625 270.901 47.4375V68H264.308V48.25C264.308 45.6042 263.672 43.6146 262.401 42.2812C261.151 40.9271 259.38 40.25 257.089 40.25C255.589 40.25 254.235 40.5521 253.026 41.1562C251.839 41.7604 250.891 42.7083 250.183 44C249.474 45.2917 249.12 46.9583 249.12 49ZM274.16 68L291.066 21.4375H299.441L316.223 68H308.691L299.723 41.75C298.993 39.5208 298.202 37.0833 297.348 34.4375C296.493 31.7917 295.473 28.5104 294.285 24.5938H296.254C295.066 28.5104 294.045 31.7917 293.191 34.4375C292.337 37.0833 291.535 39.5208 290.785 41.75L281.535 68H274.16ZM283.535 55.9062V50H306.879V55.9062H283.535ZM326.137 21.4375V68H319.544V21.4375H326.137ZM348.865 35V40.4375H329.74V35H348.865ZM335.553 26H342.146V59.2812C342.146 60.4896 342.396 61.3438 342.896 61.8438C343.417 62.3229 344.334 62.5625 345.646 62.5625C346.146 62.5625 346.698 62.5625 347.303 62.5625C347.907 62.5625 348.428 62.5625 348.865 62.5625V68C348.323 68 347.667 68 346.896 68C346.146 68 345.417 68 344.709 68C341.605 68 339.303 67.3542 337.803 66.0625C336.303 64.75 335.553 62.7708 335.553 60.125V26ZM366.655 68.75C363.384 68.75 360.572 68.0104 358.217 66.5312C355.884 65.0521 354.082 63.0208 352.811 60.4375C351.561 57.8333 350.936 54.875 350.936 51.5625C350.936 48.1875 351.592 45.2083 352.905 42.625C354.217 40.0208 356.03 37.9792 358.342 36.5C360.655 35 363.311 34.25 366.311 34.25C368.645 34.25 370.749 34.6667 372.624 35.5C374.52 36.3333 376.145 37.5208 377.499 39.0625C378.853 40.5833 379.895 42.3958 380.624 44.5C381.353 46.6042 381.717 48.9375 381.717 51.5V53.2812H353.905V48.2812H378.249L375.342 49.8125C375.342 47.7708 374.978 46 374.249 44.5C373.52 42.9792 372.478 41.8125 371.124 41C369.79 40.1667 368.207 39.75 366.374 39.75C364.561 39.75 362.988 40.1667 361.655 41C360.322 41.8125 359.28 42.9792 358.53 44.5C357.801 46 357.436 47.7708 357.436 49.8125V52.6562C357.436 54.7396 357.801 56.5833 358.53 58.1875C359.259 59.7708 360.311 61.0104 361.686 61.9062C363.082 62.8021 364.77 63.25 366.749 63.25C368.186 63.25 369.457 63.0312 370.561 62.5938C371.665 62.1354 372.582 61.5104 373.311 60.7188C374.04 59.9271 374.561 59.0104 374.874 57.9688H381.217C380.822 60.0938 379.936 61.9688 378.561 63.5938C377.207 65.1979 375.499 66.4583 373.436 67.375C371.395 68.2917 369.134 68.75 366.655 68.75ZM386.476 68V35H392.789V40.3438H392.914C393.518 38.5312 394.466 37.125 395.758 36.125C397.07 35.1042 398.778 34.5938 400.883 34.5938C401.383 34.5938 401.841 34.6146 402.258 34.6562C402.695 34.6771 403.039 34.7083 403.289 34.75V40.9062C403.039 40.8438 402.591 40.7812 401.945 40.7188C401.299 40.6354 400.591 40.5938 399.82 40.5938C398.591 40.5938 397.455 40.875 396.414 41.4375C395.393 42 394.58 42.8646 393.976 44.0312C393.372 45.1979 393.07 46.6875 393.07 48.5V68H386.476ZM414.047 49V68H407.454V35H413.922V43.1875H412.391C413.475 40.2292 414.975 38.0208 416.891 36.5625C418.829 35.0833 421.162 34.3438 423.891 34.3438C426.162 34.3438 428.193 34.8438 429.985 35.8438C431.797 36.8229 433.225 38.2812 434.266 40.2188C435.308 42.1562 435.829 44.5625 435.829 47.4375V68H429.235V48.25C429.235 45.6042 428.6 43.6146 427.329 42.2812C426.079 40.9271 424.308 40.25 422.016 40.25C420.516 40.25 419.162 40.5521 417.954 41.1562C416.766 41.7604 415.818 42.7083 415.11 44C414.402 45.2917 414.047 46.9583 414.047 49ZM452.369 68.5312C450.181 68.5312 448.223 68.1562 446.494 67.4062C444.785 66.6562 443.431 65.5417 442.431 64.0625C441.431 62.5833 440.931 60.75 440.931 58.5625C440.931 56.6875 441.285 55.1458 441.994 53.9375C442.723 52.7292 443.702 51.7708 444.931 51.0625C446.16 50.3542 447.556 49.8229 449.119 49.4688C450.681 49.0938 452.296 48.8125 453.962 48.625C456.046 48.3542 457.681 48.1458 458.869 48C460.077 47.8333 460.931 47.5833 461.431 47.25C461.952 46.8958 462.212 46.3229 462.212 45.5312V45.25C462.212 44.1875 461.952 43.25 461.431 42.4375C460.91 41.6042 460.15 40.9479 459.15 40.4688C458.15 39.9896 456.952 39.75 455.556 39.75C454.16 39.75 452.921 39.9792 451.837 40.4375C450.775 40.8958 449.921 41.5312 449.275 42.3438C448.65 43.1354 448.296 44.0417 448.212 45.0625H441.744C441.848 42.9583 442.483 41.1042 443.65 39.5C444.817 37.8958 446.421 36.6354 448.462 35.7188C450.504 34.8021 452.9 34.3438 455.65 34.3438C457.671 34.3438 459.494 34.6042 461.119 35.125C462.744 35.6458 464.119 36.3958 465.244 37.375C466.39 38.3333 467.254 39.4896 467.837 40.8438C468.442 42.1979 468.744 43.7083 468.744 45.375V68H462.244V63.3125H462.119C461.66 64.2083 461.035 65.0521 460.244 65.8438C459.452 66.6354 458.41 67.2812 457.119 67.7812C455.848 68.2812 454.265 68.5312 452.369 68.5312ZM453.712 63.2188C455.65 63.2188 457.244 62.875 458.494 62.1875C459.765 61.4792 460.702 60.5521 461.306 59.4062C461.931 58.2604 462.244 57.0104 462.244 55.6562V51.7812C462.015 51.9688 461.64 52.1458 461.119 52.3125C460.619 52.4583 460.004 52.6042 459.275 52.75C458.546 52.875 457.754 53.0104 456.9 53.1562C456.046 53.3021 455.192 53.4271 454.337 53.5312C453.129 53.6979 452.004 53.9792 450.962 54.375C449.921 54.75 449.077 55.2812 448.431 55.9688C447.806 56.6562 447.494 57.5625 447.494 58.6875C447.494 59.625 447.744 60.4375 448.244 61.125C448.744 61.7917 449.462 62.3125 450.4 62.6875C451.337 63.0417 452.442 63.2188 453.712 63.2188ZM491.128 35V40.4375H472.003V35H491.128ZM477.815 26H484.409V59.2812C484.409 60.4896 484.659 61.3438 485.159 61.8438C485.68 62.3229 486.596 62.5625 487.909 62.5625C488.409 62.5625 488.961 62.5625 489.565 62.5625C490.169 62.5625 490.69 62.5625 491.128 62.5625V68C490.586 68 489.93 68 489.159 68C488.409 68 487.68 68 486.971 68C483.867 68 481.565 67.3542 480.065 66.0625C478.565 64.75 477.815 62.7708 477.815 60.125V26ZM495.386 68V35H501.98V68H495.386ZM498.668 29.3125C497.501 29.3125 496.511 28.9271 495.699 28.1562C494.907 27.3646 494.511 26.4062 494.511 25.2812C494.511 24.1354 494.907 23.1771 495.699 22.4062C496.511 21.6146 497.501 21.2188 498.668 21.2188C499.834 21.2188 500.824 21.6146 501.636 22.4062C502.449 23.1771 502.855 24.1354 502.855 25.2812C502.855 26.4062 502.449 27.3646 501.636 28.1562C500.824 28.9271 499.834 29.3125 498.668 29.3125ZM518.082 68L505.52 35H512.582L519.145 53.0938C519.749 54.8021 520.322 56.5104 520.864 58.2188C521.426 59.9062 521.978 61.6042 522.52 63.3125H520.926C521.468 61.6042 522.01 59.9062 522.551 58.2188C523.093 56.5104 523.655 54.8021 524.239 53.0938L530.707 35H537.676L525.082 68H518.082ZM554.122 68.75C550.852 68.75 548.039 68.0104 545.685 66.5312C543.352 65.0521 541.55 63.0208 540.279 60.4375C539.029 57.8333 538.404 54.875 538.404 51.5625C538.404 48.1875 539.06 45.2083 540.372 42.625C541.685 40.0208 543.497 37.9792 545.81 36.5C548.122 35 550.779 34.25 553.779 34.25C556.112 34.25 558.216 34.6667 560.091 35.5C561.987 36.3333 563.612 37.5208 564.966 39.0625C566.32 40.5833 567.362 42.3958 568.091 44.5C568.82 46.6042 569.185 48.9375 569.185 51.5V53.2812H541.372V48.2812H565.716L562.81 49.8125C562.81 47.7708 562.445 46 561.716 44.5C560.987 42.9792 559.945 41.8125 558.591 41C557.258 40.1667 555.675 39.75 553.841 39.75C552.029 39.75 550.456 40.1667 549.122 41C547.789 41.8125 546.747 42.9792 545.997 44.5C545.268 46 544.904 47.7708 544.904 49.8125V52.6562C544.904 54.7396 545.268 56.5833 545.997 58.1875C546.727 59.7708 547.779 61.0104 549.154 61.9062C550.55 62.8021 552.237 63.25 554.216 63.25C555.654 63.25 556.925 63.0312 558.029 62.5938C559.133 62.1354 560.05 61.5104 560.779 60.7188C561.508 59.9271 562.029 59.0104 562.341 57.9688H568.685C568.289 60.0938 567.404 61.9688 566.029 63.5938C564.675 65.1979 562.966 66.4583 560.904 67.375C558.862 68.2917 556.602 68.75 554.122 68.75Z" fill="black"/>
<defs>
<clipPath id="clip0_1057_27">
<rect width="96" height="90.7156" fill="white"/>
</clipPath>
</defs>
</svg>

<svg fill="none" xmlns="http://www.w3.org/2000/svg" viewBox="0 0 572 91">
  <path d="M91.49 45.4v-4.35L56.05 43.1a2.24 2.24 0 0 1-1.91-3.58l19.4-29.55L66 5.6 50.05 37.31a2.24 2.24 0 0 1-4.01-.01L30.09 5.6l-7.54 4.36 19.49 29.67a2.24 2.24 0 0 1-2 3.46L4.61 41.07v8.7l35.43-2.04a2.24 2.24 0 0 1 1.92 3.59L22.55 80.86l3.78 2.18 3.77 2.17 15.95-31.7a2.24 2.24 0 0 1 4.01 0L66 85.22l3.77-2.17.13-.07 3.65-2.11-19.48-29.67a2.24 2.24 0 0 1 1.99-3.46l35.43 2.04V45.4Zm4.5-6.72v13.46h-.01v.12a2.24 2.24 0 0 1-2.37 2.11l-33.37-1.92 18.34 27.93.08.12a2.24 2.24 0 0 1-.83 3.05l-5.7 3.3-.12.06-5.82 3.37-.12.06c-1.1.56-2.45.11-3-1L48.04 59.5l-15 29.8-.08.16a2.24 2.24 0 0 1-3.06.82l-5.83-3.37-5.82-3.36-.11-.07a2.24 2.24 0 0 1-.64-3.1l18.34-27.93-33.2 1.91c-.1.02-.19.02-.29.02-1.24 0-2.24-1-2.24-2.24V38.56a2.24 2.24 0 0 1 2.37-2.12l33.36 1.92-18.34-27.92-.07-.12a2.24 2.24 0 0 1 .83-3.05L29.8.6a2.24 2.24 0 0 1 3.24.86l15.02 29.85L63.07 1.47l.06-.1A2.23 2.23 0 0 1 66.2.54l11.65 6.73.12.07a2.24 2.24 0 0 1 .64 3.1L60.25 38.36l33.2-1.9.3-.03c1.23 0 2.24 1.01 2.24 2.25ZM145.94 68.75c-4.13 0-7.8-1.01-11.03-3.03a21.1 21.1 0 0 1-7.63-8.44 27.4 27.4 0 0 1-2.75-12.53c0-4.77.92-8.96 2.75-12.56a21.05 21.05 0 0 1 7.63-8.47 20.36 20.36 0 0 1 11.03-3.03 20.26 20.26 0 0 1 18.65 11.5c1.86 3.6 2.78 7.79 2.78 12.56 0 4.73-.92 8.9-2.78 12.53a21.1 21.1 0 0 1-7.62 8.44 20.26 20.26 0 0 1-11.03 3.03Zm0-6.34c2.69 0 5.12-.68 7.31-2.03a14.35 14.35 0 0 0 5.22-6c1.29-2.65 1.94-5.86 1.94-9.63 0-3.8-.65-7.01-1.94-9.66a14.1 14.1 0 0 0-5.22-6 13.46 13.46 0 0 0-7.31-2.06c-2.67 0-5.1.69-7.28 2.06a14.1 14.1 0 0 0-5.22 6c-1.3 2.65-1.94 5.87-1.94 9.66 0 3.77.65 6.98 1.94 9.63a14.35 14.35 0 0 0 5.22 6 13.56 13.56 0 0 0 7.28 2.03Zm26.76 18.65V35h6.47v4.75h.09a9.79 9.79 0 0 1 2.6-3 11.5 11.5 0 0 1 3.52-1.78c1.32-.42 2.68-.63 4.1-.63 2.85 0 5.34.73 7.47 2.2a14.19 14.19 0 0 1 5 6.02 20.73 20.73 0 0 1 1.8 8.94c0 3.4-.59 6.39-1.77 8.97a14.46 14.46 0 0 1-5 6.03 13.21 13.21 0 0 1-7.53 2.16c-1.42 0-2.76-.21-4.03-.63a10.68 10.68 0 0 1-6.04-5h-.09v18.03h-6.6Zm15.4-18.1c1.8 0 3.36-.43 4.69-1.3a8.85 8.85 0 0 0 3.13-3.88c.77-1.7 1.15-3.8 1.15-6.28 0-2.5-.38-4.6-1.16-6.31-.75-1.71-1.79-3-3.12-3.88A8.35 8.35 0 0 0 188.1 40c-1.87 0-3.5.48-4.9 1.44a9.25 9.25 0 0 0-3.22 4 15 15 0 0 0-1.13 6.06c0 2.3.38 4.3 1.13 6.03a9.47 9.47 0 0 0 3.22 4.03 8.6 8.6 0 0 0 4.9 1.4Zm34.6 5.79c-3.27 0-6.08-.74-8.43-2.22a14.76 14.76 0 0 1-5.4-6.1 20.26 20.26 0 0 1-1.88-8.87c0-3.37.65-6.35 1.97-8.94a15.24 15.24 0 0 1 5.43-6.12 14.31 14.31 0 0 1 7.97-2.25c2.33 0 4.44.42 6.31 1.25a13.8 13.8 0 0 1 4.88 3.56 15.9 15.9 0 0 1 3.12 5.44c.73 2.1 1.1 4.44 1.1 7v1.78h-27.81v-5h24.34l-2.9 1.53c0-2.04-.37-3.81-1.1-5.31a8 8 0 0 0-3.13-3.5 8.78 8.78 0 0 0-4.75-1.25 8.26 8.26 0 0 0-7.84 4.75c-.73 1.5-1.1 3.27-1.1 5.31v2.85c0 2.08.37 3.92 1.1 5.53a8.63 8.63 0 0 0 3.16 3.72c1.4.9 3.08 1.34 5.06 1.34 1.44 0 2.7-.22 3.81-.66a7.68 7.68 0 0 0 2.75-1.87c.73-.8 1.25-1.71 1.56-2.75h6.35c-.4 2.12-1.28 4-2.66 5.62a14.06 14.06 0 0 1-5.12 3.78c-2.05.92-4.3 1.38-6.78 1.38ZM249.13 49v19h-6.6V35H249v8.19h-1.53c1.09-2.96 2.59-5.17 4.5-6.63a11.2 11.2 0 0 1 7-2.22c2.28 0 4.3.5 6.1 1.5 1.81.98 3.24 2.44 4.28 4.38s1.56 4.34 1.56 7.22V68h-6.6V48.25c0-2.65-.63-4.64-1.9-5.97-1.25-1.35-3.02-2.03-5.31-2.03-1.5 0-2.85.3-4.06.9a6.68 6.68 0 0 0-2.85 2.85c-.7 1.3-1.06 2.96-1.06 5Zm25.04 19 16.9-46.56h8.38L316.22 68h-7.53l-8.97-26.25-2.37-7.31c-.86-2.65-1.88-5.93-3.06-9.85h1.96a598.51 598.51 0 0 1-5.46 17.16L281.54 68h-7.38Zm9.38-12.1V50h23.34v5.9h-23.34Zm42.6-34.46V68h-6.6V21.44h6.6ZM348.87 35v5.44h-19.13V35h19.13Zm-13.32-9h6.6v33.28c0 1.21.25 2.06.75 2.56.52.48 1.43.72 2.75.72h3.21V68h-4.16c-3.1 0-5.4-.65-6.9-1.94-1.5-1.31-2.25-3.29-2.25-5.94V26Zm31.1 42.75c-3.27 0-6.08-.74-8.43-2.22a14.77 14.77 0 0 1-5.4-6.1 20.26 20.26 0 0 1-1.88-8.87c0-3.37.65-6.35 1.96-8.94a15.24 15.24 0 0 1 5.44-6.12 14.32 14.32 0 0 1 7.97-2.25c2.33 0 4.44.42 6.31 1.25a13.8 13.8 0 0 1 4.88 3.56 15.9 15.9 0 0 1 3.12 5.44c.73 2.1 1.1 4.44 1.1 7v1.78H353.9v-5h24.35l-2.9 1.53c0-2.04-.37-3.81-1.1-5.31a8 8 0 0 0-3.13-3.5 8.78 8.78 0 0 0-4.75-1.25 8.26 8.26 0 0 0-7.84 4.75c-.73 1.5-1.1 3.27-1.1 5.31v2.85c0 2.08.37 3.92 1.1 5.53a8.63 8.63 0 0 0 3.16 3.72c1.4.9 3.08 1.34 5.06 1.34 1.44 0 2.7-.22 3.81-.66a7.68 7.68 0 0 0 2.75-1.87c.73-.8 1.25-1.71 1.56-2.75h6.35c-.4 2.12-1.28 4-2.66 5.62a14.06 14.06 0 0 1-5.12 3.78c-2.05.92-4.3 1.38-6.79 1.38Zm19.83-.75V35h6.3v5.34h.13a8.6 8.6 0 0 1 2.85-4.22 8.1 8.1 0 0 1 5.12-1.53c.5 0 .96.02 1.38.07.44.02.78.05 1.03.09v6.16c-.25-.07-.7-.13-1.35-.2-.64-.07-1.35-.12-2.12-.12-1.23 0-2.37.28-3.4.85a6.01 6.01 0 0 0-2.44 2.6 9.69 9.69 0 0 0-.91 4.46V68h-6.6Zm27.57-19v19h-6.6V35h6.47v8.19h-1.53c1.09-2.96 2.59-5.17 4.5-6.63a11.2 11.2 0 0 1 7-2.22c2.27 0 4.3.5 6.1 1.5 1.8.98 3.24 2.44 4.28 4.38s1.56 4.34 1.56 7.22V68h-6.6V48.25c0-2.65-.63-4.64-1.9-5.97-1.25-1.35-3.02-2.03-5.31-2.03-1.5 0-2.86.3-4.07.9a6.68 6.68 0 0 0-2.84 2.85c-.7 1.3-1.06 2.96-1.06 5Zm38.32 19.53c-2.19 0-4.15-.37-5.88-1.12a9.3 9.3 0 0 1-4.06-3.35 9.6 9.6 0 0 1-1.5-5.5c0-1.87.36-3.41 1.06-4.62a8.1 8.1 0 0 1 2.94-2.88c1.23-.7 2.63-1.24 4.19-1.6a39.8 39.8 0 0 1 4.84-.84l4.9-.62a6.48 6.48 0 0 0 2.57-.75c.52-.35.78-.93.78-1.72v-.28a5.1 5.1 0 0 0-3.06-4.78c-1-.48-2.2-.72-3.6-.72-1.39 0-2.63.23-3.71.69a6.48 6.48 0 0 0-2.56 1.9c-.63.8-.98 1.7-1.07 2.72h-6.47c.1-2.1.74-3.96 1.91-5.56a11.74 11.74 0 0 1 4.81-3.78 17.42 17.42 0 0 1 7.19-1.38c2.02 0 3.84.26 5.47.78 1.62.53 3 1.28 4.12 2.26a9.22 9.22 0 0 1 2.6 3.46c.6 1.36.9 2.87.9 4.53V68h-6.5v-4.69h-.12c-.46.9-1.08 1.74-1.88 2.53a8.9 8.9 0 0 1-3.12 1.94c-1.27.5-2.86.75-4.75.75Zm1.34-5.31c1.94 0 3.53-.34 4.78-1.03a6.82 6.82 0 0 0 2.82-2.78 7.7 7.7 0 0 0 .93-3.75v-3.88c-.23.19-.6.37-1.12.53-.5.15-1.12.3-1.85.44l-2.37.4c-.85.15-1.7.28-2.56.38-1.21.17-2.34.45-3.38.84-1.04.38-1.88.91-2.53 1.6-.62.69-.94 1.6-.94 2.72 0 .94.25 1.75.75 2.44.5.66 1.22 1.18 2.16 1.56.94.35 2.04.53 3.31.53ZM491.13 35v5.44H472V35h19.13Zm-13.31-9h6.59v33.28c0 1.21.25 2.06.75 2.56.52.48 1.44.72 2.75.72H491.13V68h-4.16c-3.1 0-5.4-.65-6.9-1.94-1.5-1.31-2.25-3.29-2.25-5.94V26Zm17.57 42V35h6.59v33h-6.6Zm3.28-38.69a4.15 4.15 0 0 1-2.97-1.15 3.91 3.91 0 0 1-1.19-2.88 4.1 4.1 0 0 1 4.16-4.06c1.16 0 2.15.4 2.97 1.19a3.8 3.8 0 0 1 1.22 2.87c0 1.13-.41 2.08-1.22 2.88a4.15 4.15 0 0 1-2.97 1.15ZM518.08 68l-12.56-33h7.06l6.56 18.1c.6 1.7 1.18 3.41 1.72 5.12.57 1.69 1.12 3.38 1.66 5.1h-1.6l1.63-5.1c.54-1.71 1.1-3.42 1.69-5.13L530.7 35h6.97l-12.6 33h-7Zm36.04.75c-3.27 0-6.08-.74-8.44-2.22a14.77 14.77 0 0 1-5.4-6.1 20.26 20.26 0 0 1-1.88-8.87c0-3.37.66-6.35 1.97-8.94a15.24 15.24 0 0 1 5.44-6.12 14.32 14.32 0 0 1 7.97-2.25c2.33 0 4.44.42 6.31 1.25a13.8 13.8 0 0 1 4.88 3.56 15.9 15.9 0 0 1 3.12 5.44c.73 2.1 1.1 4.44 1.1 7v1.78h-27.82v-5h24.35l-2.91 1.53c0-2.04-.36-3.81-1.1-5.31a8 8 0 0 0-3.12-3.5 8.78 8.78 0 0 0-4.75-1.25A8.26 8.26 0 0 0 546 44.5c-.73 1.5-1.1 3.27-1.1 5.31v2.85c0 2.08.37 3.92 1.1 5.53a8.64 8.64 0 0 0 3.15 3.72c1.4.9 3.09 1.34 5.07 1.34 1.43 0 2.7-.22 3.8-.66a7.68 7.68 0 0 0 2.76-1.87c.73-.8 1.25-1.71 1.56-2.75h6.34c-.4 2.12-1.28 4-2.65 5.62a14.07 14.07 0 0 1-5.13 3.78c-2.04.92-4.3 1.38-6.78 1.38Z"/>
</svg>
